X: 50
T: JIG: Kilmovee
C: C: Trad.; S: Conal O'Grada
C: Set Leaders: Mars, Tania
Z: Mars Agliullin ed.; Phantom Button at The Session
N: https://thesession.org/members/26966/sets/94271
R: Jig
M: 6/8
L: 1/8
Q: 3/8=116
K: Gmaj
D|:~G3 ~B3|GAB AGE|DGB deg|ege edB|
~G3 Bge|dBG AGE|DGB deg|1 edB G2D:|2 edB G3||
|:~g3 dBG|ABA AGE|GBd g2f|eag fed|
B2e dBA|GAB GED|GAB deg|1 edB G3:|2 edB G2||

